X: 1870
T:Vals fran Alvdalen
M:3/4
L:1/8
Q:1/4=150
C:Trad Swedish
S:Swap
O:Sweden
N:Play after Dream Walt
Z:Malcolm Downi
K:G
D2 DF A2|GF GA B2|A2 AG FE|ED DC B,C|!
D2 DF A2|GF GA B2|A2 AG FA|G6:|!
Bc BA GF|E/2F/2 E3 D2|d2 ^c2 BA|B4-B z|!
Bc BA GF|E/2F/2 E3 D2|G2 F2 ED|E6:|!
